X: 3
T: Missa Adieu mes amours / Credo
N: Derived from Obr1001c-Missa_Adieu_mes_amours-Credo.krn
C: Jacob Obrecht
%%abc-version 2.0
%%abcx-abcm2ps-target-version 5.9.1 (29 Sep 2008)
%%abc-creator hum2abc beta
%%abcx-conversion-date 2019/02/17 07:23:44
%%abc-edited-by Jesse Rodin
%%abc-edited-by Chris Gage 09-06-2012
%%abcx-initial-encoding-date 2013/05/07/
%%humdrum-veritas 868178848
%%humdrum-veritas-data 2672297154
%%linebreak <none>
%%barnumbers 0
L: 1/4
M: 3/1
Q: 1/2=120
%%staves [1 2 3 4]
V: 1 clef=treble
V: 2 clef=treble-8
V: 3 clef=treble-8
V: 4 clef=bass
K: F
[V:1] A8B4 | 
[V:2] z4z4d4- | 
[V:3] z12 | 
[V:4] D,8G,4 | 
[V:1] A4z4A4 | 
[V:2] d4_e4d4 | 
[V:3] z12 | 
[V:4] F,2D,4C,2D,3E,/F,/ | 
[V:1] G2A3GG4^F2 | 
[V:2] d4B2c2d4 | 
[V:3] z12 | 
[V:4] G,2D,2_E,4D,4 | 
[V:1] G8z4 | 
[V:2] _e2d4c4=B2 | 
[V:3] z12 | 
[V:4] C,2B,,2C,4D,4 | 
[V:1] !fermata!G12 | 
[V:2] !fermata!c12 | 
[V:3] !fermata!G12 | 
[V:4] !fermata!C,12 | 
[V:1] z4z4G3A | 
[V:2] G3AB2B2c3B | 
[V:3] z12 | 
[V:4] z12 | 
[V:1] B2B2c3BG2G2 | 
[V:2] G2G2A3GE2E2 | 
[V:3] z12 | 
[V:4] z12 | 
[V:1] A3GE2E2F3E | 
[V:2] F3EC4D2F2 | 
[V:3] z12 | 
[V:4] z12 | 
[V:1] C4D2F2E4 | 
[V:2] E4D2A3Bc2 | 
[V:3] z12 | 
[V:4] z12 | 
[V:1] D2G3FEDE4 | 
[V:2] d2e3dc=Bd^c2=B | 
[V:3] z12 | 
[V:4] z12 | 
[V:1] D4A6A2 | 
[V:2] d4z4d4- | 
[V:3] z12 | 
[V:4] z12 | 
[V:1] B2B2G4A4- | 
[V:2] d2d2_e2_e2c4 | 
[V:3] z12 | 
[V:4] z12 | 
[V:1] A2A2F4G4- | 
[V:2] d6d2B4 | 
[V:3] z12 | 
[V:4] z12 | 
[V:1] G2E6F3E | 
[V:2] c6A6 | 
[V:3] z12 | 
[V:4] z12 | 
[V:1] D2E2C2F4E2 | 
[V:2] B3A/G/F2A2G4- | 
[V:3] z12 | 
[V:4] z12 | 
[V:1] D2C3B,A,G,A,4 | 
[V:2] G2A3GG4^F2 | 
[V:3] z12 | 
[V:4] z12 | 
[V:1] G,A,B,CDEFGABcd | 
[V:2] G3ABcd2cdef | 
[V:3] z12 | 
[V:4] z12 | 
[V:1] B2A3GG4^F2 | 
[V:2] d2c3dB2A4 | 
[V:3] z12 | 
[V:4] z12 | 
[V:1] G12 | 
[V:2] G3ABGc4=B2 | 
[V:3] z12 | 
[V:4] G,,12 | 
[V:1] z4z4E2F2 | 
[V:2] c8z4 | 
[V:3] G12- | 
[V:4] C,12- | 
[V:1] G8E4 | 
[V:2] e6c2c4 | 
[V:3] G12 | 
[V:4] C,12 | 
[V:1] D2d3cBAG4 | 
[V:2] d4B2d4e2 | 
[V:3] B12 | 
[V:4] G,,12 | 
[V:1] A2F4EDC2c2- | 
[V:2] f3ec4z4 | 
[V:3] A12- | 
[V:4] D,4F,6E,D, | 
[V:1] cBAGF2G4^F2 | 
[V:2] c6d3cA2 | 
[V:3] A12 | 
[V:4] C,2F,3E,D,C,D,4 | 
[V:1] G4z2D4CB, | 
[V:2] B2c2d2B4AG | 
[V:3] G12 | 
[V:4] G,,2C,2B,,2G,,4G,2 | 
[V:1] A,2D4CB,A,4 | 
[V:2] A2B3GG4^F2 | 
[V:3] d12- | 
[V:4] F,2D,2G,4D,4 | 
[V:1] G,2G3AB3AG2 | 
[V:2] G6d3cB2 | 
[V:3] d12- | 
[V:4] G,,4G,,2G,,3A,,B,,C, | 
[V:1] F2B2A2G4^F2 | 
[V:2] A2d3cB2A4 | 
[V:3] d12- | 
[V:4] D,3E,F,2G,2D,4 | 
[V:1] G8D4 | 
[V:2] G12 | 
[V:3] d12 | 
[V:4] G,,12 | 
[V:1] z12 | 
[V:2] z2G2F2A2G2F2 | 
[V:3] z12 | 
[V:4] C,2B,,2D,2C,2B,,2A,,2- | 
[V:1] z12 | 
[V:2] E2F2D2E2F2G2 | 
[V:3] z12 | 
[V:4] A,,4B,,2G,,2A,,2B,,2 | 
[V:1] z12 | 
[V:2] E2F2G2A2F2G2 | 
[V:3] z12 | 
[V:4] C,2A,,2B,,2C,2D,2B,,2 | 
[V:1] z12 | 
[V:2] A2B3AA4G2 | 
[V:3] z12 | 
[V:4] C,2D,4C,2B,,4 | 
[V:1] z12 | 
[V:2] A4z4A4 | 
[V:3] z12 | 
[V:4] A,,3B,,C,2D,3C,B,,A,, | 
[V:1] z12 | 
[V:2] B8A4 | 
[V:3] z12 | 
[V:4] G,,2D,2_E,D,G,4F,2 | 
[V:1] z12 | 
[V:2] G2A4GFB2A2 | 
[V:3] z12 | 
[V:4] _E,2C,2D,4B,,2C,2- | 
[V:1] z12 | 
[V:2] G2c2B2A2d3c | 
[V:3] z12 | 
[V:4] C,B,,A,,2G,,2C,2B,,2A,,2 | 
[V:1] z12 | 
[V:2] BAB3GG4F2 | 
[V:3] z12 | 
[V:4] D,2D,4C,B,,C,2D,2 | 
[V:1] z12 | 
[V:2] G6FED4 | 
[V:3] z12 | 
[V:4] _E,3D,B,,2C,4=B,,2 | 
[V:1] G2G2G2A2G4 | 
[V:2] C4z4G2G2 | 
[V:3] c12- | 
[V:4] C,8C,2C,2 | 
[V:1] E4F2F2E2F2 | 
[V:2] G2G2A4G4- | 
[V:3] c12 | 
[V:4] C,2C,2F,4C,4 | 
[V:1] G4E2A4G2 | 
[V:2] G4z4d4 | 
[V:3] c8B4 | 
[V:4] C,3D,E,2F,2G,4 | 
[V:1] A4z4A4 | 
[V:2] d3ef3e/d/e2d2 | 
[V:3] A12 | 
[V:4] F,2D,4C,B,,C,2D,2 | 
[V:1] B8B4 | 
[V:2] d6B3cde | 
[V:3] G12 | 
[V:4] G,,12 | 
[V:1] A6F3GA2 | 
[V:2] f2d4cBA4 | 
[V:3] F12- | 
[V:4] D,12 | 
[V:1] D3EF2B,3CD2 | 
[V:2] B2d3ef2B3c | 
[V:3] F12 | 
[V:4] B,,12 | 
[V:1] G,3A,B,CD3EFG | 
[V:2] d2G2B4AGF2 | 
[V:3] z12 | 
[V:4] z2G,,3A,,B,,C,D,3E, | 
[V:1] A2B3Ac3BAG | 
[V:2] z12 | 
[V:3] z12 | 
[V:4] F,E,G,3F,E,D,C,2D,2- | 
[V:1] F2G3FA3GFE | 
[V:2] z12 | 
[V:3] z12 | 
[V:4] D,C,_E,3D,C,B,,A,,2B,,2- | 
[V:1] D2E3DF3EDC | 
[V:2] z4z4A4 | 
[V:3] z12 | 
[V:4] B,,A,,C,3B,,A,,G,,F,,4 | 
[V:1] B,2C3B,D3CB,A, | 
[V:2] G2A4B2A2B2- | 
[V:3] z12 | 
[V:4] z4F,3E,F,2D,2 | 
[V:1] G,2A,3G,G4^F2 | 
[V:2] Bcd2B2c2A4 | 
[V:3] z12 | 
[V:4] _E,3D,E,2C,2D,4 | 
[V:1] G4z4G4 | 
[V:2] G3FD2_E2D4 | 
[V:3] G8B4- | 
[V:4] G,,12 | 
[V:1] F6G2A4 | 
[V:2] d12- | 
[V:3] B4A8 | 
[V:4] z4D,4D,4 | 
[V:1] B6A2B2AG | 
[V:2] d8G4 | 
[V:3] G3ABcd4c2 | 
[V:4] G,,2G,4F,2_E,4 | 
[V:1] F4z4z4 | 
[V:2] A4z4z4 | 
[V:3] d12 | 
[V:4] D,3E,F,2G,3A,B,2 | 
[V:1] z12 | 
[V:2] z12 | 
[V:3] f2e2d2f2e2d2 | 
[V:4] A,2G,2B,2A,2G,2B,2 | 
[V:1] z4z4G4 | 
[V:2] z4z4G4 | 
[V:3] f2e3dd4^c2 | 
[V:4] A,4G,2F,2E,4 | 
[V:1] F3GA2B3cd2- | 
[V:2] A6G2B4 | 
[V:3] d12 | 
[V:4] D,3E,F,2G,4F,E, | 
[V:1] dcBAB6A2 | 
[V:2] A2B3cdef4 | 
[V:3] d6B2c4 | 
[V:4] D,2G,2D,2G,2F,4 | 
[V:1] B4z2d3cB2 | 
[V:2] d4D3EF2G2 | 
[V:3] B8z2d2- | 
[V:4] B,,2D,3C,B,,2A,,2G,,2 | 
[V:1] A2G2c2B2A2d2- | 
[V:2] F2G2z4z4 | 
[V:3] dcB2A2G2c2B2 | 
[V:4] D,3E,F,2G,2F,2G,2 | 
[V:1] dcB2A3/G/G4^F2 | 
[V:2] d12 | 
[V:3] A2d3cB2A4 | 
[V:4] D,3E,F,2G,2D,4 | 
[V:1] G12 ||  
[V:2] d12 ||  
[V:3] G12 ||  
[V:4] G,,12 ||  
[V:1]  [K:F] [K:clef=treble][M:2/1]z8 | 
[V:2]  [K:F] [K:clef=treble-8][M:2/1]c6_e2- | 
[V:3]  [K:F] [K:clef=treble-8][M:2/1]G8- | 
[V:4]  [K:F] [K:clef=bass][M:2/1]C,8- | 
[V:1] z8 | 
[V:2] e2dc_e3d | 
[V:3] G8- | 
[V:4] C,6_E,2- | 
[V:1] G6B2- | 
[V:2] B6c2 | 
[V:3] G8- | 
[V:4] E,2D,C,_E,3D, | 
[V:1] BAGFE4 | 
[V:2] d4c4 | 
[V:3] G8 | 
[V:4] B,,4C,4 | 
[V:1] F4G4 | 
[V:2] A2B4AG | 
[V:3] d8- | 
[V:4] D,4G,,4 | 
[V:1] A2G4F2 | 
[V:2] F2B2A4 | 
[V:3] d8- | 
[V:4] z2G,,2D,4 | 
[V:1] B4A2B2- | 
[V:2] G4z2G2 | 
[V:3] d8- | 
[V:4] G,,2G,2F,2G,2- | 
[V:1] B2AGF4 | 
[V:2] B4A4 | 
[V:3] d8 | 
[V:4] G,F,G,2D,4 | 
[V:1] A4G2A2- | 
[V:2] F4G2F2 | 
[V:3] c8- | 
[V:4] z2F,2E,2F,2- | 
[V:1] A2GFE4 | 
[V:2] A4G4 | 
[V:3] c8- | 
[V:4] F,E,F,2C,4 | 
[V:1] F4z4 | 
[V:2] F2A2G2A2- | 
[V:3] c8- | 
[V:4] z2F,2E,2F,2- | 
[V:1] A8 | 
[V:2] A2GFE4 | 
[V:3] c8 | 
[V:4] F,2E,D,C,4 | 
[V:1] B6d2- | 
[V:2] F2G2F2B2- | 
[V:3] d8- | 
[V:4] B,,8 | 
[V:1] dcBAB2AG | 
[V:2] BAGFG3F | 
[V:3] d8- | 
[V:4] G,,8 | 
[V:1] F8- | 
[V:2] D8 | 
[V:3] d8- | 
[V:4] B,,8- | 
[V:1] F8 | 
[V:2] B6d2- | 
[V:3] d8 | 
[V:4] B,,8 | 
[V:1] F8 | 
[V:2] dcBAB3A | 
[V:3] d8 | 
[V:4] D,8 | 
[V:1] F4G4 | 
[V:2] F4z2G2 | 
[V:3] z8 | 
[V:4] D,4_E,4 | 
[V:1] F2G2F2G2- | 
[V:2] A2G2A2G2 | 
[V:3] z8 | 
[V:4] D,2_E,2D,2E,2- | 
[V:1] G2^FEF4 | 
[V:2] B2c2A4 | 
[V:3] z8 | 
[V:4] E,2D,C,D,4 | 
[V:1] G4z4 | 
[V:2] G4z4 | 
[V:3] z8 | 
[V:4] G,,4z4 | 
[V:1] A8 | 
[V:2] F8- | 
[V:3] d8- | 
[V:4] D,8 | 
[V:1] B8 | 
[V:2] F8 | 
[V:3] d8 | 
[V:4] B,,8 | 
[V:1] A8 | 
[V:2] A8 | 
[V:3] c8 | 
[V:4] F,8 | 
[V:1] F8 | 
[V:2] B6A2- | 
[V:3] d8- | 
[V:4] B,,4D,4- | 
[V:1] A8 | 
[V:2] AGFED2d2- | 
[V:3] d8 | 
[V:4] D,2E,2F,4 | 
[V:1] G2B4AG | 
[V:2] d2cBc4 | 
[V:3] G8 | 
[V:4] G,4_E,4 | 
[V:1] F2G4^F2 | 
[V:2] d8- | 
[V:3] A8 | 
[V:4] D,8 | 
[V:1] G8- | 
[V:2] d8 | 
[V:3] G8- | 
[V:4] G,,8- | 
[V:1] G8 | 
[V:2] z8 | 
[V:3] G8 | 
[V:4] G,,8 | 
[V:1] z8 | 
[V:2] d4_e2d2- | 
[V:3] z8 | 
[V:4] z8 | 
[V:1] z8 | 
[V:2] d2c2B2A2 | 
[V:3] z8 | 
[V:4] z8 | 
[V:1] z8 | 
[V:2] G4F2E2 | 
[V:3] z8 | 
[V:4] G,4A,2G,2- | 
[V:1] z8 | 
[V:2] D4C2F2 | 
[V:3] z8 | 
[V:4] G,2F,2E,2D,2 | 
[V:1] z8 | 
[V:2] E2A4G2 | 
[V:3] z8 | 
[V:4] C,4B,,4 | 
[V:1] z8 | 
[V:2] A6G2- | 
[V:3] z8 | 
[V:4] A,,2F,4E,2- | 
[V:1] z8 | 
[V:2] GAF2E4 | 
[V:3] z8 | 
[V:4] E,D,D,4^C,2 | 
[V:1] A4B2A2- | 
[V:2] D8 | 
[V:3] z8 | 
[V:4] D,8- | 
[V:1] A2G2F2E2 | 
[V:2] z8 | 
[V:3] z8 | 
[V:4] D,8 | 
[V:1] D4C2B,2 | 
[V:2] z8 | 
[V:3] z8 | 
[V:4] D,4_E,2D,2- | 
[V:1] A,4G,4 | 
[V:2] z8 | 
[V:3] z8 | 
[V:4] D,2C,2B,,2A,,2 | 
[V:1] z8 | 
[V:2] z8 | 
[V:3] z8 | 
[V:4] G,,4F,,2G,,2- | 
[V:1] z8 | 
[V:2] z2G2F2G2- | 
[V:3] z8 | 
[V:4] G,,A,,B,,C,A,,2G,,2 | 
[V:1] z2G2F2G2- | 
[V:2] GABcA2G2 | 
[V:3] z8 | 
[V:4] z8 | 
[V:1] GABcA2G2 | 
[V:2] d4z4 | 
[V:3] z8 | 
[V:4] z2G,,2F,,2G,,2- | 
[V:1] d4z4 | 
[V:2] z2G2F2G2- | 
[V:3] z8 | 
[V:4] G,,A,,B,,C,A,,2G,,2 | 
[V:1] z2G2F2G2- | 
[V:2] GABcA2G2 | 
[V:3] z8 | 
[V:4] z8 | 
[V:1] GABcA2G2 | 
[V:2] B3A/B/c2B2- | 
[V:3] z8 | 
[V:4] z2G,,2F,,2G,,2- | 
[V:1] B3A/B/c2B2- | 
[V:2] B2AGF2G2 | 
[V:3] z8 | 
[V:4] G,,A,,B,,C,A,,2G,,2 | 
[V:1] B2AG^F4 | 
[V:2] B2c2A4 | 
[V:3] z8 | 
[V:4] G,2C,2D,4 | 
[V:1] G3FE2D2- | 
[V:2] G4z4 | 
[V:3] z8 | 
[V:4] G,,2B,,2C,2D,2 | 
[V:1] DCB,2A,2B,2- | 
[V:2] d3c/d/_e2d2- | 
[V:3] z8 | 
[V:4] G,,2B,,2C,2D,2 | 
[V:1] B,A,G,4^F,2 | 
[V:2] d2cBA4 | 
[V:3] z8 | 
[V:4] G,,2B,,2C,2D,2 | 
[V:1] G,8 | 
[V:2] G4B4- | 
[V:3] G8 | 
[V:4] G,,4G,4- | 
[V:1] G4A4 | 
[V:2] B4A4 | 
[V:3] d4d4- | 
[V:4] G,4F,4 | 
[V:1] B2c3BAG | 
[V:2] G6FG | 
[V:3] d2cBc4 | 
[V:4] _E,8 | 
[V:1] F6G2 | 
[V:2] A8 | 
[V:3] d8- | 
[V:4] D,8- | 
[V:1] A2F2B4- | 
[V:2] F4f4- | 
[V:3] d8 | 
[V:4] D,4B,,4 | 
[V:1] B2AGA4 | 
[V:2] f8 | 
[V:3] c8 | 
[V:4] F,8 | 
[V:1] B4A4- | 
[V:2] d4_e4- | 
[V:3] B4c4- | 
[V:4] G,4C,4 | 
[V:1] A2G2G4- | 
[V:2] e2d2c2B2 | 
[V:3] c2B2A2G2 | 
[V:4] _E,8 | 
[V:1] G4^F4 | 
[V:2] d8- | 
[V:3] A8 | 
[V:4] D,8 | 
[V:1] G8- | 
[V:2] d8 | 
[V:3] G8- | 
[V:4] G,,8 | 
[V:1] G8 | 
[V:2] d2_e3dc2 | 
[V:3] G8 | 
[V:4] G,,2C,2B,,2C,2 | 
[V:1] G4B4 | 
[V:2] d4e4 | 
[V:3] z8 | 
[V:4] G,,4G,4 | 
[V:1] A4G4 | 
[V:2] f4d4 | 
[V:3] z8 | 
[V:4] F,4G,4 | 
[V:1] d8 | 
[V:2] z2B3cde | 
[V:3] G4B4 | 
[V:4] G,,8 | 
[V:1] c6B2 | 
[V:2] f4e4 | 
[V:3] A4G4 | 
[V:4] z4G,4 | 
[V:1] A4G4 | 
[V:2] f2d4cB | 
[V:3] d8- | 
[V:4] F,4G,4 | 
[V:1] F4B4 | 
[V:2] A2B2F4 | 
[V:3] d8 | 
[V:4] D,2B,,3C,D,E, | 
[V:1] A2G3FED | 
[V:2] z4c4- | 
[V:3] c6B2 | 
[V:4] F,2C,3D,E,2 | 
[V:1] C2F4E2 | 
[V:2] c4c4 | 
[V:3] A4G4 | 
[V:4] F,4C,4 | 
[V:1] F8 | 
[V:2] A2d3cBA | 
[V:3] F8 | 
[V:4] D,4F,4 | 
[V:1] z8 | 
[V:2] G4A4 | 
[V:3] z8 | 
[V:4] E,4D,4 | 
[V:1] z8 | 
[V:2] D4F4 | 
[V:3] z8 | 
[V:4] A,8 | 
[V:1] z8 | 
[V:2] E4D2f2- | 
[V:3] z8 | 
[V:4] G,6F,2 | 
[V:1] z4z2G2- | 
[V:2] fed4^c2 | 
[V:3] z4G4 | 
[V:4] D,2F,2E,4 | 
[V:1] G2FEF3G/A/ | 
[V:2] d8 | 
[V:3] B4A4 | 
[V:4] D,8 | 
[V:1] B4B,3C/D/ | 
[V:2] B6G2 | 
[V:3] G4d4 | 
[V:4] G,,8 | 
[V:1] _E4D4 | 
[V:2] G8 | 
[V:3] z2c4B2 | 
[V:4] C,4z2G,2- | 
[V:1] G2G4^F2 | 
[V:2] z8 | 
[V:3] G2B2A4 | 
[V:4] G,F,G,2D,4 | 
[V:1] G6F2 | 
[V:2] G4d4 | 
[V:3] G8 | 
[V:4] G,,8 | 
[V:1] D4C2c2- | 
[V:2] B4c4 | 
[V:3] z8 | 
[V:4] D,4A,4 | 
[V:1] c2BABAGF | 
[V:2] d8 | 
[V:3] z8 | 
[V:4] F,4G,4 | 
[V:1] E4E4 | 
[V:2] c6B2 | 
[V:3] z8 | 
[V:4] A,6G,2 | 
[V:1] D6E2 | 
[V:2] G2B4AG | 
[V:3] G4d4 | 
[V:4] G,6F,2 | 
[V:1] F3E/F/G2E2 | 
[V:2] A4G4 | 
[V:3] d4c4 | 
[V:4] D,4E,4 | 
[V:1] FEDCB,4 | 
[V:2] z4z2d2 | 
[V:3] d6c2 | 
[V:4] D,8 | 
[V:1] C4z4 | 
[V:2] e3fg2a2- | 
[V:3] c6B2 | 
[V:4] A,3G,E,2D,2 | 
[V:1] z8 | 
[V:2] a2g4^f2 | 
[V:3] G4A4 | 
[V:4] _E,4D,4 | 
[V:1] G4d4 | 
[V:2] g6f2 | 
[V:3] G8 | 
[V:4] z8 | 
[V:1] d4c4 | 
[V:2] d2f2e4 | 
[V:3] z8 | 
[V:4] z8 | 
[V:1] d8- | 
[V:2] d8 | 
[V:3] G4d4 | 
[V:4] z8 | 
[V:1] d4c4- | 
[V:2] z8 | 
[V:3] B4c4 | 
[V:4] D,4A,4 | 
[V:1] c4B4 | 
[V:2] z4g4 | 
[V:3] d8 | 
[V:4] F,4G,4 | 
[V:1] c3BAGB2- | 
[V:2] e2f3edc | 
[V:3] c6B2 | 
[V:4] A,4z2G,2- | 
[V:1] BAG4^F2 | 
[V:2] B2c2A2d2- | 
[V:3] G4A4 | 
[V:4] G,2_E,2D,4 | 
[V:1] G2B3AG2- | 
[V:2] d2cBc4 | 
[V:3] G8 | 
[V:4] _E,8 | 
[V:1] G2^FEF4 | 
[V:2] d8 | 
[V:3] A8 | 
[V:4] D,8 | 
[V:1] G8 | 
[V:2] z4G4 | 
[V:3] G8 | 
[V:4] G,,8 | 
[V:1] z8 | 
[V:2] B4A4 | 
[V:3] z8 | 
[V:4] D,4F,4 | 
[V:1] z8 | 
[V:2] G4d4 | 
[V:3] z8 | 
[V:4] E,4D,4 | 
[V:1] z8 | 
[V:2] e2f3edc | 
[V:3] z8 | 
[V:4] A,8 | 
[V:1] z8 | 
[V:2] _e2d3cB2 | 
[V:3] z8 | 
[V:4] G,8 | 
[V:1] z8 | 
[V:2] A2c3de2 | 
[V:3] z8 | 
[V:4] F,4E,4 | 
[V:1] z8 | 
[V:2] fedc=B4 | 
[V:3] z8 | 
[V:4] D,8 | 
[V:1] z4D4 | 
[V:2] c4z4 | 
[V:3] G4B4 | 
[V:4] C,4z4 | 
[V:1] F4E4 | 
[V:2] z8 | 
[V:3] A4G4 | 
[V:4] z8 | 
[V:1] D4A4 | 
[V:2] z8 | 
[V:3] d8 | 
[V:4] z8 | 
[V:1] z2A4GF | 
[V:2] z8 | 
[V:3] c8 | 
[V:4] z8 | 
[V:1] GFEDC2F2- | 
[V:2] z8 | 
[V:3] B4A4 | 
[V:4] z8 | 
[V:1] F2EDE4 | 
[V:2] z4c4 | 
[V:3] G8 | 
[V:4] C,8 | 
[V:1] F4z2F2 | 
[V:2] A3BA2d2- | 
[V:3] F8 | 
[V:4] D,4F,4 | 
[V:1] G3AB2A2- | 
[V:2] d2c2d4 | 
[V:3] z8 | 
[V:4] E,4D,4 | 
[V:1] A2GFE2A2 | 
[V:2] c2c4BA | 
[V:3] z8 | 
[V:4] A,8 | 
[V:1] D6F2- | 
[V:2] B2B4AG | 
[V:3] G4B4 | 
[V:4] G,6F,2 | 
[V:1] F2EDC4 | 
[V:2] F4G4 | 
[V:3] A4G4 | 
[V:4] D,4E,4 | 
[V:1] z2F3GAB | 
[V:2] F4z2f2 | 
[V:3] d8 | 
[V:4] D,8 | 
[V:1] c3BAGB2- | 
[V:2] e2f3ed2- | 
[V:3] c6B2 | 
[V:4] A,4F,2G,2- | 
[V:1] BAG4^F2 | 
[V:2] d2c2d4- | 
[V:3] G4A4 | 
[V:4] G,2_E,2D,4 | 
[V:1] G8- | 
[V:2] d2_e4dc | 
[V:3] G8- | 
[V:4] G,,8- | 
[V:1] G8 |]  
[V:2] d8 |]  
[V:3] G8 |]  
[V:4] G,,8 |]  



